pages/mobile-developers/learn-as-you-go-with-our-documentation.svg

<?xml version="1.0" encoding="UTF-8"?>
<svg width="292px" height="359px" viewBox="0 0 292 359" version="1.1" xmlns="http://www.w3.org/2000/svg" xmlns:xlink="http://www.w3.org/1999/xlink">
    <!-- Generator: Sketch 41.2 (35397) - http://www.bohemiancoding.com/sketch -->
    <title>learn-as-you-go-with-our-documentation</title>
    <desc>Created with Sketch.</desc>
    <defs></defs>
    <g id="Page-1" stroke="none" stroke-width="1" fill="none" fill-rule="evenodd">
        <g id="learn-as-you-go-with-our-documentation" fill="#0070D3">
            <path d="M49.0444444,119.888889 L72.8888889,123.988889 C71.0777778,118.088889 69.8777778,111.9 69.3777778,105.511111 L91.5444444,108.7 L91.5444444,122.244444 L149.7,122.244444 L149.7,112.666667 L159.966667,112.666667 L159.966667,122.244444 L218.111111,122.244444 L218.111111,109.044444 L236.622222,106.177778 C236.422222,110.666667 235.855556,115.422222 234.977778,120.222222 L253.4,116.755556 C249.466667,67.1666667 230.477778,0 151.611111,0 C140.411111,0 127.355556,1.37777778 121.688889,3.93333333 C116,6.47777778 114.977778,12.2888889 111.311111,13.5222222 C107.488889,14.8111111 102.066667,14.2888889 98.7,15.9222222 C46.1666667,41.2222222 48,102.9 48,102.9 L49.0444444,119.888889 Z M143.244444,115.777778 L98,115.777778 L98,92.7444444 L143.244444,92.7444444 L143.244444,115.777778 Z M211.644444,115.777778 L166.422222,115.777778 L166.422222,92.7444444 L211.644444,92.7444444 L211.644444,115.777778 Z M69.6777778,90.7333333 C93.0555556,89.1444444 119.455556,70.7333333 121.511111,45.0888889 C151.1,69.5888889 193.033333,70.7888889 227.966667,73.9111111 C232.333333,75.9555556 235.511111,84.7444444 236.411111,96.3888889 L218.111111,99.2222222 L218.111111,86.2888889 L159.955556,86.2888889 L159.955556,99.7444444 L149.688889,99.7444444 L149.688889,86.2888889 L91.5333333,86.2888889 L91.5333333,98.9 L69.0666667,95.6666667 C69.2777778,94.0333333 69.4888889,92.4 69.6777778,90.7333333 Z" id="Shape"></path>
            <path d="M291.288889,237.2 C291.288889,225.1 286.422222,214.544444 279.177778,208.511111 L279.177778,122.133333 L147.377778,143.133333 L15.5333333,122.133333 L15.5333333,206.233333 C6.52222222,211.577778 0.233333333,223.4 0.233333333,237.2 C0.233333333,250.988889 6.52222222,262.811111 15.5333333,268.155556 L15.5333333,337.177778 L147.377778,358.188889 L279.177778,337.2 L279.177778,265.888889 C286.433333,259.833333 291.288889,249.288889 291.288889,237.2 Z M141.388889,345.122222 L27.5,326.977778 L27.5,271.055556 C41.2222222,270.166667 52.1777778,255.411111 52.1777778,237.2 C52.1777778,218.977778 41.2333333,204.222222 27.5,203.322222 L27.5,136.144444 L141.388889,154.3 L141.388889,345.122222 Z M267.222222,326.977778 L153.344444,345.122222 L153.344444,154.3 L267.222222,136.144444 L267.222222,160.211111 L267.222222,203.411111 C266.566667,203.344444 265.977778,203.177778 265.311111,203.177778 C250.966667,203.177778 239.333333,218.422222 239.333333,237.2 C239.333333,255.988889 250.966667,271.233333 265.311111,271.233333 C265.977778,271.233333 266.566667,271.044444 267.222222,270.988889 L267.222222,326.977778 L267.222222,326.977778 Z" id="Shape"></path>
        </g>
    </g>
</svg>

<svg width="292" height="359" viewBox="0 0 292 359" xmlns="http://www.w3.org/2000/svg"><title>learn-as-you-go-with-our-documentation</title><g fill="#0070D3" fill-rule="evenodd"><path d="M49.044 119.889l23.845 4.1a85.741 85.741 0 0 1-3.511-18.478l22.166 3.189v13.544H149.7v-9.577h10.267v9.577h58.144v-13.2l18.511-2.866c-.2 4.489-.766 9.244-1.644 14.044l18.422-3.466C249.467 67.166 230.478 0 151.611 0c-11.2 0-24.255 1.378-29.922 3.933-5.689 2.545-6.711 8.356-10.378 9.59-3.822 1.288-9.244.766-12.611 2.4C46.167 41.222 48 102.9 48 102.9l1.044 16.989zm94.2-4.111H98V92.744h45.244v23.034zm68.4 0h-45.222V92.744h45.222v23.034zM69.678 90.733c23.378-1.589 49.778-20 51.833-45.644 29.589 24.5 71.522 25.7 106.456 28.822 4.366 2.045 7.544 10.833 8.444 22.478l-18.3 2.833V86.29h-58.155v13.455h-10.267V86.29H91.533V98.9l-22.466-3.233c.21-1.634.422-3.267.61-4.934z"/><path d="M291.289 237.2c0-12.1-4.867-22.656-12.111-28.689v-86.378l-131.8 21-131.845-21v84.1C6.523 211.578.233 223.4.233 237.2c0 13.789 6.29 25.611 15.3 30.956v69.022l131.845 21.01 131.8-20.988v-71.311c7.255-6.056 12.11-16.6 12.11-28.689zm-149.9 107.922L27.5 326.978v-55.922c13.722-.89 24.678-15.645 24.678-33.856 0-18.222-10.945-32.978-24.678-33.878v-67.178L141.389 154.3v190.822zm125.833-18.144l-113.878 18.144V154.3l113.878-18.156v67.267c-.655-.067-1.244-.233-1.91-.233-14.345 0-25.979 15.244-25.979 34.022 0 18.789 11.634 34.033 25.978 34.033.667 0 1.256-.189 1.911-.244v55.989z"/></g></svg>
